packages/icons/src/components/Icon/assets/small-outline/box-essentials.svg

<svg width="16" height="16" viewBox="0 0 16 16" fill="none" xmlns="http://www.w3.org/2000/svg">
<path d="M13.8003 5.42354L8.66455 8.08174V13.8308L13.8003 11.28V5.42354ZM2.93311 4.44014L8.06201 7.0417L13.0884 4.44014L8.06104 1.87178L2.93311 4.44014ZM2.19971 11.2761L7.46436 13.8396V8.08467L2.19971 5.41377V11.2761ZM15.0005 11.6521C15.0004 11.8797 14.8712 12.0878 14.6675 12.1892L8.33154 15.3376C8.16501 15.4202 7.96942 15.4209 7.80225 15.3396L1.3374 12.1911C1.13114 12.0906 1.00056 11.8815 1.00049 11.6521V4.43721C1.00063 4.21023 1.12858 4.00273 1.33154 3.90108L7.79639 0.66377L7.86182 0.63545C8.01676 0.579731 8.18888 0.589916 8.3374 0.665724L14.6733 3.90303C14.8739 4.00554 15.0004 4.21201 15.0005 4.43721V11.6521Z" fill="#727683"/>
</svg>

<svg xmlns="http://www.w3.org/2000/svg" width="16" height="16" fill="none" viewBox="0 0 16 16">
    <path fill="#727683" d="M13.8 5.424 8.665 8.082v5.749L13.8 11.28zM2.933 4.44l5.129 2.602 5.026-2.602-5.027-2.568zM2.2 11.276l5.264 2.564V8.085L2.2 5.414zm12.8.376a.6.6 0 0 1-.332.537l-6.336 3.149a.6.6 0 0 1-.53.002l-6.465-3.15A.6.6 0 0 1 1 11.652V4.437a.6.6 0 0 1 .332-.536L7.796.664l.066-.029a.6.6 0 0 1 .475.03l6.336 3.238a.6.6 0 0 1 .328.534z"/>
</svg>
